packages/icons/src/assets/cashier.svg

<svg width="16" height="16" viewBox="0 0 16 16" xmlns="http://www.w3.org/2000/svg" fill="currentColor">
<path d="M15 6.35352H11.2998V8.0752H13.624C14.66 8.07545 15.4999 8.92576 15.5 9.97461V14.5H14.249V9.97461C14.2489 9.62515 13.9692 9.34205 13.624 9.3418H2.37691C2.03152 9.3418 1.75103 9.625 1.75093 9.97461V14.5H0.499954V9.97461C0.500049 8.9256 1.34062 8.0752 2.37691 8.0752H9.99995V6.35352H6.29976V1.5H15V6.35352ZM11.4052 12.8242H4.59468V11.5586H11.4052V12.8242ZM7.55074 5.09766H13.749V2.75586H7.55074V5.09766Z"/>
</svg>

<svg xmlns="http://www.w3.org/2000/svg" width="16" height="16" viewBox="0 0 16 16"><path d="M15 6.354h-3.7v1.721h2.324c1.036 0 1.876.85 1.876 1.9V14.5h-1.251V9.975a.63.63 0 0 0-.625-.633H2.377a.63.63 0 0 0-.626.633V14.5H.5V9.975c0-1.05.84-1.9 1.877-1.9H10V6.354H6.3V1.5H15zm-3.595 6.47h-6.81V11.56h6.81zM7.551 5.098h6.198V2.756H7.551z"/></svg>
